X: 10841
T: THE ROYAL RECOVERY STRATHSPEY
R: strathspey
B: K\"ohler's Violin Repository, v.1, 1885 p.84 #1
F: http://www.archive.org/details/klersviolinrepos01edin
Z: 2012 John Chambers <jc:trillian.mit.edu>
M: C|
L: 1/8
K: A
[|\
v(.A,>.B,) (.C>.D) (.E>.F) (EC) | (.A,>.C) (E>C) E(A"^>"A>c) |\
v(.A,>.B,) (.C>.D) (.E>.F) (F/E/)D/C/ | B,B/c/ (d/c/B/A/) G(B"^>"B>c) |
(.A,>.B,) (.C>.D) (.E>.F) (EC) | (.A,>.C) (E>C) E(AA c/d/) |\
(.e>.c) (AE) (Fd) (.f>.e) | (.d>.c) (B>A) G(BB |]
uc) |\
A<A (.c>.A) (eA)cA | (.E>.A)(.c>.A) (f/e/)d/c/ (B>c ) |\
A<A (.c>.A) (eA)cA | FG/A/ (F/E/)D/C/ B,(B"^>"B>c) |
A<A (c>A) (eA)cA | (.E>.A)(c>A) (f/e/)d/c/ (B>c) |\
(.A>.c)(AE) (.F>.A)FD | (.E>.D) (C>B,) A,"_Segue Reel."(AA>c) "^D.C."|]

%%sep 2 1 500

